X:3003
L:1/8
Q:1/2=70
M:2/2
K:D
 a | fdec d3{ef} g | fdec dAFD | b2 ge a2 fd | f(e/f/) gf e3 :: a | a2 fd b2 Bb | g2 ec a2 Aa | 
 B g2 B cAdg | f2"^tr" e2 d3 :|

